X:1
T:Corgarff Castle
T:Corgarff Castle
T:Alexander Walker
C:Alexander Walker
L:1/8
Q:1/8=128
M:4/4
K:A
V:1 treble 
V:1
|: C | A,<A, E>A, F>A, E>C | A,<A, E>c d/c/B/A/ G/F/E/D/ | C<A, E>A, F>A, E>A | G<E B>G A3 C | %5
 A,<A, E>A, F>A, E>C | A,<A, E>c d/c/B/A/ G/F/E/D/ | C<A, E>A, F>A, E>A | G<E B>G A3 f | %9
 e>A d/c/B/A/ e<A c>A | e>c d/c/B/A/ B<E G>B | e>A d/c/B/A/ e<A c>A | A>F E<A, A,3 c | %13
 e>A d/c/B/A/ e<A c>A | e>c d/c/B/A/ B<E G>B | c<e e>a d<f f>b | g<e b>e a3 :| %17

